!!!!SEGMENT: pl-sa--554-a-ix-34--009_anonim-adagio-non-troppo.krn
!!!id: 18xx:572
!!!COM: Anonim
!!!OTL: Adagio non troppo
!!!PDT:
!!!SMS-siglum: PL-SA
!!!SMS-shelfmark: 554/A IX 34
!!!SMS-variant:
!!!SMS-altvar:
!!!NIFC-rismID: 1001069601
!!!system-decoration: {(s1,s2)}
**kern	**kern	**dynam
*part1	*part1	*part1
*staff2	*staff1	*
*	*I"Piano	*
*clefF4	*clefG2	*
*k[f#]	*k[f#]	*
*G:	*G:	*
*M6/8	*M6/8	*
*>[A,B,B,C,C,B]	*>[A,B,B,C,C,B]	*
=1	=1	=1
*>A	*>A	*
!	!LO:TX:a:Bi:t=Adagio non troppo:rj	!
8G\	8dd 8b\	p
8r	8r	.
!	!LO:TX:b:Bi:t=Dol(ce)	!
8G\	(>8dd 8b\	.
4G\	8.ddL 8.b\	.
.	16eeK 16cc\	.
8GG/	8ddJ 8b\)	sf
=2	=2	=2
4D\	4.cc 4.a\	.
8D#X\	.	.
8E\	8b 8g\	p
8r	8r	.
8E\	8b 8g\	.
=3	=3	=3
4C/	(>4cc 4a\	.
8BB/	8dd 8b\)	.
8.AA\L	(>8.eeL 8.cc\	.
16BB\K	16ddK 16b\	.
8C\J	8ccJ 8a\)	.
=4	=4	=4
4D/	(<4.b 4.g/	.
8DD/	.	.
4D/	4a 4f#/)	.
8r	8r	.
!LO:TX:a:t=[segno]:problem:znak segno na kresce taktowej	!LO:TX:a:t=[segno]:problem:znak segno na kresce taktowej	!
=5||	=5||	=5||
*>B	*>B	*
8GG/	8dd 8b\	.
8r	8r	.
8G\	8dd 8b\	.
4G\	8.ddL 8.b\	.
.	16eeK 16cc\	.
8GG/	8ddJ 8b\	.
=6	=6	=6
4D\	4.cc 4.a\	sf
8D#X\	.	.
8E\	8b 8g/	.
8r	8r	p
8E\	8b 8g/	.
=7	=7	=7
8.C/L	8.ccL 8.a\	.
16BB/K	16ddK 16b\	.
8AA/J	8eeJ 8cc\	.
4D\	4b 4g 4d/	.
8D\	8a 8f# 8c/	.
=8	=8	=8
4GG/	4.a 4.f# 4.c/	.
8G\	.	.
4GG/	4g 4B/	.
!	!LO:TX:b:Bi:t=Finis	!
8r	8r	.
=9:|!|:;	=9:|!|:;	=9:|!|:
*>C	*>C	*
8D 8DD/	8a 8f#/	.
8r	8r	.
8D 8DD/	8a 8f#/	.
4D 4DD/	8.aL 8.f#/	.
.	16bK 16g/	.
8D 8DD/	8ccJ 8a/	.
=10	=10	=10
.	8qcc 8qa/	.
4D 4GG/	4b 4g\	.
8D 8DD/	8a 8f#/	.
4D 4DD/	4a 4f#/	.
8GG/	8b 8g/	.
=11	=11	=11
4AA/	4cc#X 4g/	.
8BB/	8dd 8f#/	.
4GG/	4ee 4b\	.
8AA/	8ff# 8a\	.
=12	=12	=12
4DD/	4.dd 4.f#/	.
8D\	.	.
4DD/	4dd 4f#/	.
8r	8dd 8b/	.
!	!LO:TX:b:Bi:t=Singum Da Capo ad Fine	!
!LO:TX:a:t=[segno]:problem:znak segno na kresce taktowej	!LO:TX:a:t=[segno]:problem:znak segno na kresce taktowej	!
==	==	==
*-	*-	*-
!!title: @{OTL};
!!!RDF**kern: > = above
!!!RDF**kern: < = below
!!!ENC: Marta Chmielewska
!!!END: 2020-06-18
!!!EED: Wojciech Jakubiak-Danek
!!!EST: 2020-12-13
!!!URL-scan: http://bc.bdsandomierz.pl/dlibra/publication/1310/edition/1278/content
!!!ONB-nifc: Str. 7, s. 5
